!!!OTL@@DE: Auf, auf, ihr Br&uuml;der, und seid froh!
!!!ONB: Mel. in: Auswahl deutscher Lieder, Leipzig
!!!ODT: 1827
!!!OMD: Bewegt
!!!LYR: Wagenseil, Christian Jacob
!!!LDT: 1791
!!!OCL: Erk, Ludwig
!!!GCO: Deutscher Liederschatz, Band 1
**kern	**kern	**kern
*staff3	*staff2	*staff1
*Ipiano	*Ipiano	*Ivox
*>[A,B,B]	*>[A,B,B]	*>[A,B,B]
*>A	*>A	*>A
*clefF4	*clefG2	*clefG2
*k[b-]	*k[b-]	*k[b-]
*F:	*F:	*F:
*M6/8	*M6/8	*M6/8
*MM110	*MM110	*MM110
8r	8c/	8c/
=1	=1	=1
*^	*	*
8r	4.F\	4f/ 4a/	4a/
8A/L	.	.	.
8c/J	.	8f/ 8a/	8a/
8r	4.C\	(8f/ 8a/L	(8a/L
8c/L	.	8g/) 8b-/	8b-/J)
8B-/J	.	8e/ 8g/J	8g/
=2	=2	=2	=2
(8B-/L	4F\	(8e/ 8g/L	(8g/L
8A/	.	8f/)	8f/J)
8A/J)	8F\	8f/J	8f/
8A/L	8F\L	4f/	4f/
8c/	8A\	.	.
8A/J	8F\J	8f/	8f/
=3	=3	=3	=3
8r	4.C\	4e/ 4g/	4g/
8c/L	.	.	.
8c/J	.	8e/ 8g/	8g/
8r	4.C\	(8e/ 8g/L	(8g/L
8c/L	.	8f/) 8a/	8a/J)
8Bn/J	.	8d/ 8f/J	8f/
=4	=4	=4	=4
8r	[4.C\	4.f/ (4.a/	(4.a/
8c/L	.	.	.
8c/J	.	.	.
8c/L	4C\]	&(4e/&) 4g/)	4g/)
8c/J	.	.	.
*v	*v	*	*
=!|:	=!|:	=!|:
*>B	*>B	*>B
8c\	8cc\	8cc\
=5	=5	=5
*^	*^	*
8r	4F\	(8cc/L	4a\	(8cc\L
8c/L	.	8ff/	.	8ff\J)
8c/J	8E-\	8a/J)	8f\	8a/
8r	4D\	(8a/L	4f#\	(8a\L
8A/L	.	8dd/)	.	8dd\J)
8d/J	8F#\	8cc/J	8a\	8cc\
*	*	*v	*v	*
=6	=6	=6	=6
8r	4G\	(8a/ 8cc/L	(8cc\L
8d/L	.	8g/) 8b-/	8b-\J)
8d/J	8G\	8g/ 8b-/J	8b-\
8r	4B-\	4e/ 4g/	4g/
8c/L	.	.	.
8c/J	8A\	8f/ 8a/	8a/
=7	=7	=7	=7
8r	4G\	(8g/ 8b-/L	(8b-/L
8c/L	.	8f/) 8a/	8a/J)
8c/J	8B-\	8e/ 8g/J	8g/
8r	(8B-\L	(8e/ 8g/L	(8g/L
8c/L	8A\)	8f/) 8a/	8a/J)
8c/J	8G\J	8g/ 8b-/J	8b-\
=8	=8	=8	=8
8r	4F\	8b-\ (8dd\L	(8dd\L
8A/L	.	8a\ 8cc\)	8cc\J)
8c/J	8F\	8a\ 8cc\J	8cc\
8f/L	4F\	4a\ 4cc\	4cc\
8c/	.	.	.
8A/J	8F\	8f/ 8cc/	8cc\
=9	=9	=9	=9
(8B-/L	4BB-\	(8f/ 8dd/L	(8dd\L
8F/	.	8d/) 8b-/	8b-\J)
8B-/J)	8BB-\	8d/ 8g/J	8g/
*	*	*^	*
(8G/	4C\	(8e/L	4c\	(8e/L
8B-/	.	8cc/)	.	8cc/J)
8G/)	8C\	8e/J	8c\	8e/
*	*	*v	*v	*
=10	=10	=10	=10
(4.B-/	8C\L	[4.c/ 4.e/ (4.g/	(4.g/
.	8D\	.	.
.	8E\J	.	.
8A/)	8F\	8c/] &(8f/&))	8f/)
8ryy	8r	8r	8r
*v	*v	*	*
==:|!	==:|!	==:|!
*-	*-	*-
!!!ENC: Craig Stuart Sapp
!!!END: 2004/06/27/
!!!EFL: 145/651
